X:296
T: ES IST BESTIMMT IN GOTTES RATH
N: B0774
O: Europa, Mitteleuropa, Deutschland
R: Abschieds - Lied, religioes
M: 4/4
L: 1/8
K: D
A2 | G3FF2d2 | =c3BB2
B2 | E2F2G2B2 | A3GF2
A2 | E3GF2A2 | E3GF2
F2 | d2c2B3A | A3^GG2
E2 | c2B2A3^G | ^G3FF2
A2 | E3GF2A2 | E3GF2A2 | E6G2 | F6

@@@ Tune index: 2514
